!!!SOCIAL_FUNCTION:	bird dance songs
!!!PDT:	1956
!!!OTL: No_128_Catfish_Dance_Song_(b).krn
!!!LANG: Non-Tone
!!!LING_GROUP: Muskogean
!!!REG: Florida
**kern
*staff1
=1-
*clefF4
*k[b-]
*M2/4
8B-\L
8A\J
4F\
=2
4.F\
8r
=3
2B-\
=4
8B-\L
8A\J
4F\
=5
4B-\
4r
=6
8B-\L
[8A\J
4A\]
=7
8.c\L
16B-\Jk
4A\
=8
2A\
=9
8B-\L
[8A\J
4A\]
=10
4.A\
8F\
=11||
*M3/4
4F\
4r
4c\
=12!|:
2c\
8d\L
8c\J
=13
2c\
4c\
=14
2A\
4A\
=15||
*M2/4
2F\
=16||
*M3/4
2F\
4r
=17||
*M2/4
2B-\
=18
8B-\L
8A\J
4F\
=19
4B-\
4r
=20
8B-\L
[8A\J
4A\]
=21
8.c\L
16B-\Jk
4A\
=22
4.A\
8r
=23
8B-\L
[8A\J
4A\]
=24
4.A\
8F\
=25||
*M3/4
4.F\
8r
4c\
=26:|!
*M2/4
4F\
4r
==
*-
